X: 1
T: Maderine Rue
T: (mad-uh-reen-uh roo)
%C: words: Peg & Robert Clancy
R: song
Z: 2020 John Chambers <jc:trillian.mit.edu>
M: C
L: 1/16
K: C
"^chorus"[|] G2 |\
"C"CDEF G2G2 | "F"A2(GF) "C"G4 | CDEF G2E2 | "G7"D4 "C"C4 |\
"F"cccc "B"B2AA | "C"GAGE "G7"D2B,G, | "C"CDEC "G7"D2D2 | "C"C4 C4- | C2z2 z2 ||
"^verse"|: G2 |\
"C"C2E2 G2G2 | "F"A2GF "C"G3G | "C"C2E2 G2E2 | "G7"D4 "C"C2 zG |\
"C"c2c2 "Em"B2"F"A2 | "C"GAGE "G7"D2B,G, | "C"CDEC "G7"D2D2 | "C"C4 !fine!z2 :|

%%sep 1 1 500
%%sep 1 1 500

